lib/brands/icons/node-js.svg

<svg xmlns="http://www.w3.org/2000/svg" fill="none" aria-hidden="true" viewBox="0 0 48 48"><g id="node-js-Icon"><path id="Vector" fill="#539E43" d="M24.0006 42C23.5045 42 23.0415 41.8677 22.6116 41.6362L18.2129 39.0234C17.5514 38.6596 17.8821 38.5273 18.0806 38.4612C18.9735 38.1635 19.1389 38.0974 20.065 37.5682C20.1642 37.5021 20.2965 37.5351 20.3957 37.6013L23.7691 39.6187C23.9014 39.6849 24.0668 39.6849 24.166 39.6187L37.3621 31.9789C37.4944 31.9127 37.5606 31.7804 37.5606 31.6151V16.3684C37.5606 16.203 37.4944 16.0707 37.3621 16.0046L24.166 8.3978C24.0337 8.33165 23.8684 8.33165 23.7691 8.3978L10.573 16.0046C10.4407 16.0707 10.3746 16.2361 10.3746 16.3684V31.6151C10.3746 31.7474 10.4407 31.9127 10.573 31.9789L14.178 34.0625C16.1293 35.0547 17.353 33.8971 17.353 32.7395V17.6913C17.353 17.4929 17.5183 17.2944 17.7498 17.2944H19.4366C19.635 17.2944 19.8334 17.4598 19.8334 17.6913V32.7395C19.8334 35.3523 18.4113 36.8737 15.9308 36.8737C15.1701 36.8737 14.5748 36.8737 12.8881 36.0469L9.41543 34.0625C8.55554 33.5664 8.02637 32.6403 8.02637 31.6481V16.4015C8.02637 15.4093 8.55554 14.4832 9.41543 13.9871L22.6116 6.34727C23.4384 5.88424 24.5629 5.88424 25.3897 6.34727L38.5859 13.9871C39.4458 14.4832 39.9749 15.4093 39.9749 16.4015V31.6481C39.9749 32.6403 39.4458 33.5664 38.5859 34.0625L25.3897 41.7023C24.9598 41.9008 24.4637 42 24.0006 42ZM28.0686 31.5158C22.2808 31.5158 21.0902 28.87 21.0902 26.621C21.0902 26.4226 21.2556 26.2242 21.4871 26.2242H23.2069C23.4053 26.2242 23.5707 26.3565 23.5707 26.5549C23.8353 28.3078 24.596 29.1677 28.1017 29.1677C30.8798 29.1677 32.0705 28.5393 32.0705 27.051C32.0705 26.1911 31.7397 25.5627 27.4072 25.1328C23.8022 24.7689 21.5532 23.9752 21.5532 21.0978C21.5532 18.4189 23.8022 16.8314 27.5725 16.8314C31.8059 16.8314 33.8895 18.2866 34.1541 21.4616C34.1541 21.5609 34.121 21.6601 34.0548 21.7593C33.9887 21.8254 33.8895 21.8916 33.7903 21.8916H32.0705C31.9051 21.8916 31.7397 21.7593 31.7067 21.5939C31.3098 19.7749 30.2845 19.1796 27.5725 19.1796C24.5298 19.1796 24.166 20.2379 24.166 21.0317C24.166 21.9908 24.596 22.2885 28.697 22.8176C32.765 23.3468 34.6832 24.1075 34.6832 26.9518C34.6502 29.8622 32.2689 31.5158 28.0686 31.5158Z"/></g></svg>

<svg xmlns="http://www.w3.org/2000/svg" fill="none" aria-hidden="true" viewBox="0 0 48 48"><path fill="#539E43" d="M24 42a2.9 2.9 0 0 1-1.388-.364l-4.399-2.613c-.661-.363-.33-.496-.132-.562.893-.297 1.058-.364 1.984-.893.1-.066.232-.033.33.033l3.374 2.018c.133.066.298.066.397 0l13.196-7.64c.133-.066.199-.199.199-.364V16.368c0-.165-.066-.297-.199-.363L24.166 8.398c-.132-.066-.297-.066-.397 0l-13.196 7.607c-.132.066-.198.231-.198.363v15.247c0 .132.066.298.198.364l3.605 2.084c1.951.992 3.175-.166 3.175-1.324V17.691c0-.198.166-.397.397-.397h1.687c.198 0 .397.166.397.397V32.74c0 2.612-1.422 4.134-3.903 4.134-.76 0-1.356 0-3.043-.827l-3.472-1.984a2.791 2.791 0 0 1-1.39-2.415V16.401c0-.992.53-1.918 1.39-2.414l13.196-7.64c.827-.463 1.951-.463 2.778 0l13.196 7.64a2.791 2.791 0 0 1 1.39 2.414v15.247c0 .992-.53 1.918-1.39 2.415l-13.196 7.64c-.43.198-.926.297-1.39.297Zm4.069-10.484c-5.788 0-6.979-2.646-6.979-4.895 0-.198.166-.397.397-.397h1.72c.199 0 .364.133.364.33.264 1.754 1.025 2.614 4.53 2.614 2.78 0 3.97-.629 3.97-2.117 0-.86-.331-1.488-4.664-1.918-3.605-.364-5.854-1.158-5.854-4.035 0-2.68 2.25-4.267 6.02-4.267 4.233 0 6.317 1.456 6.581 4.63 0 .1-.033.2-.099.298-.066.066-.165.133-.264.133h-1.72a.387.387 0 0 1-.364-.298c-.397-1.82-1.422-2.414-4.134-2.414-3.043 0-3.407 1.058-3.407 1.852 0 .959.43 1.256 4.531 1.786 4.068.529 5.987 1.29 5.987 4.134-.034 2.91-2.415 4.564-6.615 4.564Z"/></svg>
